X: 37816
T: Sonny Murray's
R: hornpipe
M: 4/4
K: Dmajor
(3EFG|ABAF DEFG|AGAB =c2 (3AB^c|dcde fdAF|G2(3GGG G2(3EFG|
ABAF DEFG|AGAB =c2 (3AB^c|dcde fdAG|(3FGFD2 D2:|
fg|af (3fff gfeg|fedc defd|(3efe (3dcB ABcd|(3efe (3dcB A2 fg|
(3aaa fa gfeg|fedc defd|eAAF GBAG|(3FGFD2 D2:|

